src/app/icon0.svg

<svg xmlns="http://www.w3.org/2000/svg" version="1.1" xmlns:xlink="http://www.w3.org/1999/xlink" width="1000" height="1000"><style>
    #light-icon {
      display: inline;
    }
    #dark-icon {
      display: none;
    }

    @media (prefers-color-scheme: dark) {
      #light-icon {
        display: none;
      }
      #dark-icon {
        display: inline;
      }
    }
  </style><g id="light-icon"><svg xmlns="http://www.w3.org/2000/svg" version="1.1" xmlns:xlink="http://www.w3.org/1999/xlink" width="1000" height="1000"><g><g transform="matrix(0.9765625,0,0,0.9765625,0,0)"><svg xmlns="http://www.w3.org/2000/svg" version="1.1" xmlns:xlink="http://www.w3.org/1999/xlink" width="1024" height="1024"><svg width="1024" height="1024" viewBox="0 0 1024 1024" style="clip-rule:evenodd;fill-rule:evenodd;image-rendering:optimizeQuality;shape-rendering:geometricPrecision;text-rendering:geometricPrecision" xmlns="http://www.w3.org/2000/svg">
  <path style="opacity:1" fill="#111110" d="M502.5 226.5q119.07.877 165.5 110a206.7 206.7 0 0 1 10 41q5.698 55.981 11 112 4.85 35.1 11 70 9.796 43.887 32 83 17.895 38.917-11.5 69.5-20.065 15.017-45 11a164 164 0 0 1-21-6q-19.677-12.792-43-12a70.3 70.3 0 0 0-20 10 281 281 0 0 1-38 31q-51.285 28.479-97-8a423 423 0 0 1-26-23 69.2 69.2 0 0 0-17-9q-9-1-18 0a1164 1164 0 0 0-43 16q-43.52 10.17-65.5-28.5-9.092-24.645 1-49a739 739 0 0 0 23-46 740 740 0 0 0 21-98 27894 27894 0 0 1 14-130q19.136-97.633 111.5-134.5 22.161-7.424 45-9.5" transform="translate(-363.784 -332.509)scale(1.71476)"></path>
  <path style="opacity:1" fill="#fefefe" d="M503.5 257.5q106.752 1.548 138.5 103a223 223 0 0 1 5 25 2217 2217 0 0 0 16 149 480.4 480.4 0 0 0 18 73l13 32a167.5 167.5 0 0 1 13 27q.705 29.28-28.5 24.5a474 474 0 0 1-27-11q-34.559-13.975-68 2a1835 1835 0 0 1-45 36q-24.267 14.985-50 3a180 180 0 0 1-15-10 315.4 315.4 0 0 0-41-32q-24.48-9.174-50-3a188.6 188.6 0 0 0-32 13q-14.317 7.458-28-1-10.653-9.46-7.5-23.5 31.077-55.218 42-118a1429 1429 0 0 0 17-150q3.977-50.964 35-91 38.069-42.159 94.5-48" transform="translate(-363.784 -332.509)scale(1.71476)"></path>
  <path style="opacity:1" fill="#101010" d="M450.5 357.5q30.027 1.269 35.5 31 3.31 22.063-11.5 38.5-28.089 18.807-46.5-9.5-12.841-30.034 9.5-53.5 6.235-4.118 13-6.5m113 0q22.389.567 31.5 21 10.692 30.081-12.5 51.5-32.768 13.905-45.5-19.5-7.798-28.079 13.5-47.5 6.325-3.677 13-5.5" transform="translate(-363.784 -332.509)scale(1.71476)"></path>
</svg></svg></g></g></svg></g><g id="dark-icon"><svg xmlns="http://www.w3.org/2000/svg" version="1.1" xmlns:xlink="http://www.w3.org/1999/xlink" width="1000" height="1000"><g><g transform="matrix(0.9765625,0,0,0.9765625,0,0)"><svg xmlns="http://www.w3.org/2000/svg" version="1.1" xmlns:xlink="http://www.w3.org/1999/xlink" width="1024" height="1024"><svg width="1024" height="1024" viewBox="0 0 1024 1024" style="clip-rule:evenodd;fill-rule:evenodd;image-rendering:optimizeQuality;shape-rendering:geometricPrecision;text-rendering:geometricPrecision" xmlns="http://www.w3.org/2000/svg">
  <path style="opacity:1" fill="#fefef1" d="M502.5 226.5q119.07.877 165.5 110a206.7 206.7 0 0 1 10 41q5.698 55.981 11 112 4.85 35.1 11 70 9.796 43.887 32 83 17.895 38.917-11.5 69.5-20.065 15.017-45 11a164 164 0 0 1-21-6q-19.677-12.792-43-12a70.3 70.3 0 0 0-20 10 281 281 0 0 1-38 31q-51.285 28.479-97-8a423 423 0 0 1-26-23 69.2 69.2 0 0 0-17-9q-9-1-18 0a1164 1164 0 0 0-43 16q-43.52 10.17-65.5-28.5-9.092-24.645 1-49a739 739 0 0 0 23-46 740 740 0 0 0 21-98 27894 27894 0 0 1 14-130q19.136-97.633 111.5-134.5 22.161-7.424 45-9.5" transform="translate(-363.784 -332.509)scale(1.71476)"></path>
  <path style="opacity:1" fill="#101010" d="M503.5 257.5q106.752 1.548 138.5 103a223 223 0 0 1 5 25 2217 2217 0 0 0 16 149 480.4 480.4 0 0 0 18 73l13 32a167.5 167.5 0 0 1 13 27q.705 29.28-28.5 24.5a474 474 0 0 1-27-11q-34.559-13.975-68 2a1835 1835 0 0 1-45 36q-24.267 14.985-50 3a180 180 0 0 1-15-10 315.4 315.4 0 0 0-41-32q-24.48-9.174-50-3a188.6 188.6 0 0 0-32 13q-14.317 7.458-28-1-10.653-9.46-7.5-23.5 31.077-55.218 42-118a1429 1429 0 0 0 17-150q3.977-50.964 35-91 38.069-42.159 94.5-48" transform="translate(-363.784 -332.509)scale(1.71476)"></path>
  <path style="opacity:1" fill="#fefefe" d="M450.5 357.5q30.027 1.269 35.5 31 3.31 22.063-11.5 38.5-28.089 18.807-46.5-9.5-12.841-30.034 9.5-53.5 6.235-4.118 13-6.5m113 0q22.389.567 31.5 21 10.692 30.081-12.5 51.5-32.768 13.905-45.5-19.5-7.798-28.079 13.5-47.5 6.325-3.677 13-5.5" transform="translate(-363.784 -332.509)scale(1.71476)"></path>
</svg></svg></g></g></svg></g></svg>

<svg xmlns="http://www.w3.org/2000/svg" version="1.1" xmlns:xlink="http://www.w3.org/1999/xlink" width="1000" height="1000"><style>
    #light-icon {
      display: inline;
    }
    #dark-icon {
      display: none;
    }

    @media (prefers-color-scheme: dark) {
      #light-icon {
        display: none;
      }
      #dark-icon {
        display: inline;
      }
    }
  </style><g id="light-icon"><svg xmlns="http://www.w3.org/2000/svg" version="1.1" xmlns:xlink="http://www.w3.org/1999/xlink" width="1000" height="1000"><g><g transform="matrix(0.9765625,0,0,0.9765625,0,0)"><svg xmlns="http://www.w3.org/2000/svg" version="1.1" xmlns:xlink="http://www.w3.org/1999/xlink" width="1024px" height="1024px"><svg xmlns="http://www.w3.org/2000/svg" version="1.1" width="1024px" height="1024px" style="shape-rendering:geometricPrecision; text-rendering:geometricPrecision; image-rendering:optimizeQuality; fill-rule:evenodd; clip-rule:evenodd" xmlns:xlink="http://www.w3.org/1999/xlink">
<g><path style="opacity:1" fill="#111110" d="M 502.5,226.5 C 581.88,227.085 637.046,263.751 668,336.5C 672.731,349.821 676.064,363.488 678,377.5C 681.799,414.821 685.465,452.154 689,489.5C 692.233,512.9 695.9,536.234 700,559.5C 706.531,588.758 717.197,616.425 732,642.5C 743.93,668.445 740.097,691.611 720.5,712C 707.123,722.011 692.123,725.678 675.5,723C 668.37,721.467 661.37,719.467 654.5,717C 641.382,708.472 627.049,704.472 611.5,705C 604.276,707.279 597.609,710.612 591.5,715C 579.704,726.469 567.037,736.802 553.5,746C 519.31,764.986 486.977,762.319 456.5,738C 447.536,730.705 438.87,723.038 430.5,715C 425.277,711.221 419.61,708.221 413.5,706C 407.5,705.333 401.5,705.333 395.5,706C 381.067,711.049 366.734,716.382 352.5,722C 323.486,728.78 301.653,719.28 287,693.5C 280.938,677.07 281.272,660.737 288,644.5C 296.194,629.445 303.861,614.112 311,598.5C 320.213,566.314 327.213,533.647 332,500.5C 336.565,457.155 341.232,413.822 346,370.5C 358.757,305.411 395.924,260.578 457.5,236C 472.274,231.051 487.274,227.884 502.5,226.5 Z"></path></g>
<g><path style="opacity:1" fill="#fefefe" d="M 503.5,257.5 C 574.668,258.532 620.834,292.865 642,360.5C 644.143,368.738 645.809,377.071 647,385.5C 650.655,435.355 655.989,485.021 663,534.5C 667.096,559.316 673.096,583.649 681,607.5C 685.333,618.167 689.667,628.833 694,639.5C 699.151,648.134 703.484,657.134 707,666.5C 707.47,686.02 697.97,694.187 678.5,691C 669.386,687.61 660.386,683.943 651.5,680C 628.461,670.683 605.794,671.35 583.5,682C 568.683,694.24 553.683,706.24 538.5,718C 522.322,727.99 505.655,728.99 488.5,721C 483.328,717.915 478.328,714.581 473.5,711C 460.693,699.188 447.026,688.521 432.5,679C 416.18,672.884 399.514,671.884 382.5,676C 371.432,679.356 360.766,683.689 350.5,689C 340.955,693.972 331.622,693.638 322.5,688C 315.398,681.693 312.898,673.86 315,664.5C 335.718,627.688 349.718,588.354 357,546.5C 365.308,496.81 370.974,446.81 374,396.5C 376.651,362.524 388.318,332.19 409,305.5C 434.379,277.394 465.879,261.394 503.5,257.5 Z"></path></g>
<g><path style="opacity:1" fill="#101010" d="M 450.5,357.5 C 470.518,358.346 482.351,368.679 486,388.5C 488.206,403.209 484.373,416.042 474.5,427C 455.774,439.538 440.274,436.371 428,417.5C 419.439,397.478 422.606,379.644 437.5,364C 441.657,361.255 445.99,359.088 450.5,357.5 Z"></path></g>
<g><path style="opacity:1" fill="#101010" d="M 563.5,357.5 C 578.426,357.878 588.926,364.878 595,378.5C 602.128,398.554 597.961,415.721 582.5,430C 560.655,439.27 545.488,432.77 537,410.5C 531.801,391.781 536.301,375.947 550.5,363C 554.717,360.549 559.05,358.715 563.5,357.5 Z"></path></g>
</svg></svg></g></g></svg></g><g id="dark-icon"><svg xmlns="http://www.w3.org/2000/svg" version="1.1" xmlns:xlink="http://www.w3.org/1999/xlink" width="1000" height="1000"><g><g transform="matrix(0.9765625,0,0,0.9765625,0,0)"><svg xmlns="http://www.w3.org/2000/svg" version="1.1" xmlns:xlink="http://www.w3.org/1999/xlink" width="1024px" height="1024px"><svg xmlns="http://www.w3.org/2000/svg" version="1.1" width="1024px" height="1024px" style="shape-rendering:geometricPrecision; text-rendering:geometricPrecision; image-rendering:optimizeQuality; fill-rule:evenodd; clip-rule:evenodd" xmlns:xlink="http://www.w3.org/1999/xlink">
<g><path style="opacity:1" fill="#fefef1" d="M 502.5,226.5 C 581.88,227.085 637.046,263.751 668,336.5C 672.731,349.821 676.064,363.488 678,377.5C 681.799,414.821 685.465,452.154 689,489.5C 692.233,512.9 695.9,536.234 700,559.5C 706.531,588.758 717.197,616.425 732,642.5C 743.93,668.445 740.097,691.611 720.5,712C 707.123,722.011 692.123,725.678 675.5,723C 668.37,721.467 661.37,719.467 654.5,717C 641.382,708.472 627.049,704.472 611.5,705C 604.276,707.279 597.609,710.612 591.5,715C 579.704,726.469 567.037,736.802 553.5,746C 519.31,764.986 486.977,762.319 456.5,738C 447.536,730.705 438.87,723.038 430.5,715C 425.277,711.221 419.61,708.221 413.5,706C 407.5,705.333 401.5,705.333 395.5,706C 381.067,711.049 366.734,716.382 352.5,722C 323.486,728.78 301.653,719.28 287,693.5C 280.938,677.07 281.272,660.737 288,644.5C 296.194,629.445 303.861,614.112 311,598.5C 320.213,566.314 327.213,533.647 332,500.5C 336.565,457.155 341.232,413.822 346,370.5C 358.757,305.411 395.924,260.578 457.5,236C 472.274,231.051 487.274,227.884 502.5,226.5 Z"></path></g>
<g><path style="opacity:1" fill="#101010" d="M 503.5,257.5 C 574.668,258.532 620.834,292.865 642,360.5C 644.143,368.738 645.809,377.071 647,385.5C 650.655,435.355 655.989,485.021 663,534.5C 667.096,559.316 673.096,583.649 681,607.5C 685.333,618.167 689.667,628.833 694,639.5C 699.151,648.134 703.484,657.134 707,666.5C 707.47,686.02 697.97,694.187 678.5,691C 669.386,687.61 660.386,683.943 651.5,680C 628.461,670.683 605.794,671.35 583.5,682C 568.683,694.24 553.683,706.24 538.5,718C 522.322,727.99 505.655,728.99 488.5,721C 483.328,717.915 478.328,714.581 473.5,711C 460.693,699.188 447.026,688.521 432.5,679C 416.18,672.884 399.514,671.884 382.5,676C 371.432,679.356 360.766,683.689 350.5,689C 340.955,693.972 331.622,693.638 322.5,688C 315.398,681.693 312.898,673.86 315,664.5C 335.718,627.688 349.718,588.354 357,546.5C 365.308,496.81 370.974,446.81 374,396.5C 376.651,362.524 388.318,332.19 409,305.5C 434.379,277.394 465.879,261.394 503.5,257.5 Z"></path></g>
<g><path style="opacity:1" fill="#fefefe" d="M 450.5,357.5 C 470.518,358.346 482.351,368.679 486,388.5C 488.206,403.209 484.373,416.042 474.5,427C 455.774,439.538 440.274,436.371 428,417.5C 419.439,397.478 422.606,379.644 437.5,364C 441.657,361.255 445.99,359.088 450.5,357.5 Z"></path></g>
<g><path style="opacity:1" fill="#fefefe" d="M 563.5,357.5 C 578.426,357.878 588.926,364.878 595,378.5C 602.128,398.554 597.961,415.721 582.5,430C 560.655,439.27 545.488,432.77 537,410.5C 531.801,391.781 536.301,375.947 550.5,363C 554.717,360.549 559.05,358.715 563.5,357.5 Z"></path></g>
</svg></svg></g></g></svg></g></svg>
